icons/s3-light.svg

<svg width="256" height="256" viewBox="0 0 256 256" fill="none" xmlns="http://www.w3.org/2000/svg" id="S3">
<g clip-path="url(#clip0_45_3)">
<path d="M196 0H60C26.8629 0 0 26.8629 0 60V196C0 229.137 26.8629 256 60 256H196C229.137 256 256 229.137 256 196V60C256 26.8629 229.137 0 196 0Z" fill="#F4F2ED"/>
<path fill-rule="evenodd" clip-rule="evenodd" d="M213.065 67.4785L170.014 128.889L213.065 190.299L230.701 182.914V74.8633L213.065 67.4785Z" fill="#E25444"/>
<path fill-rule="evenodd" clip-rule="evenodd" d="M213.065 67.4785L126.963 74.8633L83.1332 128.889L126.963 182.914L213.065 190.299V67.4785Z" fill="#7B1D13"/>
<path fill-rule="evenodd" clip-rule="evenodd" d="M39.3037 67.4785L25.2991 72.1426V185.635L39.3037 190.299L126.963 128.889L39.3037 67.4785Z" fill="#58150D"/>
<path fill-rule="evenodd" clip-rule="evenodd" d="M39.1155 67.3491L127.079 85.6598V173.759L39.1155 190.342V67.3491Z" fill="#E25444"/>
<path fill-rule="evenodd" clip-rule="evenodd" d="M127.125 95.3335L89.775 90.842L127.125 59.0572L164.383 90.842L127.125 95.3335Z" fill="#58150D"/>
<path fill-rule="evenodd" clip-rule="evenodd" d="M164.383 90.842L127.079 95.4023L89.775 90.842V59.0572" fill="#58150D"/>
<path fill-rule="evenodd" clip-rule="evenodd" d="M127.125 162.012L89.775 167.195L127.125 194.488L164.383 167.195L127.125 162.012Z" fill="#58150D"/>
<path fill-rule="evenodd" clip-rule="evenodd" d="M126.963 35.2188L89.6168 49.9883V90.7988L127.079 82.896L126.963 35.2188Z" fill="#7B1D13"/>
<path fill-rule="evenodd" clip-rule="evenodd" d="M127.079 105.352L89.775 108.393V149.14L127.079 152.338V105.352Z" fill="#7B1D13"/>
<path fill-rule="evenodd" clip-rule="evenodd" d="M127.079 174.104L89.775 167.095V207.153L127.079 221.781V174.104Z" fill="#7B1D13"/>
<path fill-rule="evenodd" clip-rule="evenodd" d="M164.383 167.095L127.079 174.106V221.781L164.383 207.153V167.095Z" fill="#E25444"/>
<path fill-rule="evenodd" clip-rule="evenodd" d="M127.079 105.352L164.383 108.393V149.14L127.079 152.338V105.352Z" fill="#E25444"/>
<path fill-rule="evenodd" clip-rule="evenodd" d="M126.963 35.2188L164.308 49.9883V90.7988L126.963 83.0254V35.2188Z" fill="#E25444"/>
</g>
<defs>
<clipPath id="clip0_45_3">
<rect width="256" height="256" fill="white"/>
</clipPath>
</defs>
</svg>

<svg xmlns="http://www.w3.org/2000/svg" id="S3" width="256" height="256" fill="none"><g clip-path="url(#clip0_45_3)"><path fill="#F4F2ED" d="M196 0H60C26.863 0 0 26.863 0 60v136c0 33.137 26.863 60 60 60h136c33.137 0 60-26.863 60-60V60c0-33.137-26.863-60-60-60"/><path fill="#E25444" fill-rule="evenodd" d="m213.065 67.479-43.051 61.41 43.051 61.41 17.636-7.385V74.864z" clip-rule="evenodd"/><path fill="#7B1D13" fill-rule="evenodd" d="m213.065 67.479-86.102 7.384-43.83 54.026 43.83 54.025 86.102 7.385z" clip-rule="evenodd"/><path fill="#58150D" fill-rule="evenodd" d="m39.304 67.479-14.005 4.664v113.492l14.005 4.664 87.659-61.41z" clip-rule="evenodd"/><path fill="#E25444" fill-rule="evenodd" d="m39.116 67.35 87.963 18.31v88.099l-87.963 16.583z" clip-rule="evenodd"/><path fill="#58150D" fill-rule="evenodd" d="m127.125 95.334-37.35-4.492 37.35-31.785 37.258 31.785z" clip-rule="evenodd"/><path fill="#58150D" fill-rule="evenodd" d="m164.383 90.842-37.304 4.56-37.304-4.56V59.057m37.35 102.955-37.35 5.183 37.35 27.293 37.258-27.293z" clip-rule="evenodd"/><path fill="#7B1D13" fill-rule="evenodd" d="m126.963 35.219-37.346 14.77v40.81l37.462-7.903zm.116 70.133-37.304 3.041v40.747l37.304 3.198zm0 68.752-37.304-7.009v40.058l37.304 14.628z" clip-rule="evenodd"/><path fill="#E25444" fill-rule="evenodd" d="m164.383 167.095-37.304 7.011v47.675l37.304-14.628zm-37.304-61.743 37.304 3.041v40.747l-37.304 3.198zm-.116-70.133 37.345 14.77v40.81l-37.345-7.774z" clip-rule="evenodd"/></g><defs><clipPath id="clip0_45_3"><path fill="#fff" d="M0 0h256v256H0z"/></clipPath></defs></svg>
